assets/Star/Flat/star_flat.svg

<svg width="32" height="32" viewBox="0 0 32 32" fill="none" xmlns="http://www.w3.org/2000/svg">
<path d="M18.6992 4.62713L20.9469 8.93616C21.288 9.57602 21.9102 10.0259 22.6326 10.1259L27.3788 10.7758C29.9175 11.1257 30.9008 14.255 29.0244 15.9946L25.7733 18.9939C25.2114 19.5138 24.9505 20.2836 25.091 21.0334L25.8837 25.4324C26.3252 27.8819 23.7765 29.7915 21.5389 28.6717L17.0034 26.4222C16.3713 26.1123 15.6287 26.1123 14.9966 26.4222L10.4611 28.6717C8.22347 29.7815 5.67477 27.8819 6.11628 25.4324L6.90898 21.0334C7.04946 20.2836 6.78857 19.5138 6.22665 18.9939L2.97556 15.9946C1.09916 14.265 2.08251 11.1257 4.62118 10.7758L9.36737 10.1259C10.0898 10.0259 10.722 9.58601 11.0531 8.93616L13.3008 4.62713C14.4447 2.45762 17.5653 2.45762 18.6992 4.62713Z" fill="#FCD53F"/>
</svg>

<svg xmlns="http://www.w3.org/2000/svg" width="32" height="32" fill="none"><path fill="#FCD53F" d="m18.7 4.627 2.247 4.31a2.27 2.27 0 0 0 1.686 1.189l4.746.65c2.538.35 3.522 3.479 1.645 5.219l-3.25 2.999a2.225 2.225 0 0 0-.683 2.04l.793 4.398c.441 2.45-2.108 4.36-4.345 3.24l-4.536-2.25a2.282 2.282 0 0 0-2.006 0l-4.536 2.25c-2.238 1.11-4.786-.79-4.345-3.24l.793-4.399c.14-.75-.12-1.52-.682-2.04l-3.251-2.998c-1.877-1.73-.893-4.87 1.645-5.22l4.746-.65a2.23 2.23 0 0 0 1.686-1.189l2.248-4.309c1.144-2.17 4.264-2.17 5.398 0Z"/></svg>
